!!!ONB: MCCC : IJB0016_02 : Extracted Monophonic Melody
!!!COM: Brahms, Johannes
!!!OPR: Clarinet Sonata No.2
!!!OMV: 2
!!!SCT: Op.120 No.2
!!!ODT: 1894///
**kern
*staff1
*clefG2
*k[b-e-a-d-g-c-]
*G-:
*M3/4
4B-
=2
2g-
8a-
8g-
=3
8f
8e-
4b-
4g-
=4
2ee-
8ff
8ee-
=5
8dd-
8cc-
4dd-
4g-
=6
4ee-
8aa-
8gg-
8ff
8ee-
=7
8cc-
8b-
8cc-
8a-
8b-
8dd-
=8
4bb-
4aa-
4ee-
=9
4gg-
4ff
4r
=10
2gg-
8aa-
8gg-
=11
8ff
8ee-
4bb-
4gg-
=12
2eee-
8fff
8eee-
=13
8ddd-
8ccc-
4ddd-
4g-
=14
2ee-
8ff
8ee-
=15
8cc-
8b-
8cc-
8a-
8b-
8dd-
=16
4bb-
4aa-
4ee-
=17
4r
4r
4d-
=18
4b-
4a-
4e-
=19
4g-
4a-
4cc
=20
4b-
4a-
4e-
=21
2g-
4r
=22
4gg-
4ff
4cc
=23
4ee-
4ff
4aa-
=24
4gg-
4ff
4cc
=25
4dd
4ee-
4ff
=26
4aa-
4gg-
4b--
=27
4cc-
4b-
4B-
=28
4r
4r
4b-
=29
2.gg-[
=30
2gg-]
8gg
8gg-
=31
8ff-
8dd
4dd-
4r
=32
4r
4r
4G-
=33
2.g-[
=34
2g-]
8g
8f-
=35
8d-
8c-
4B-
4r
=36
2.r
=37
4r
4r
4B-
=38
2g-
8a-
8g-
=39
8f
8e-
4b-
4g-
=40
2ee-
8ff
8ee-
=41
8dd-
8cc-
4dd-
4g-
=42
4ee-
8aa-
8gg-
8ff
8ee-
=43
8cc-
8b-
4cc-
8aa-
8ff
=44
8b-
8a-
4b-
8bb-
8gg-
=45
4ee-
8aa-
8ff
4dd
=46
8gg-
8ee-
8cc-
8a-
4f
=47
2ff
4B-
=48
2.bb-
=49
4r
4r
8a-
8g-
=50
8f
8e-
4r
8a-
8g-
=51
8f-
8e-
4r
8g-
8f-
=52
8e-
8d
4d
4d
=53
4d
4e-
4f
=54
4B-
4r
4r
=55
2.r
=56
4r
4r
8g-
8f-
=57
8e-
8d
4d
8d
8d-
=58
8d-
8c-
4c-
8c-
8d-
=59
8d-
8d
8d
8d-
8d-
8c-
=60
4f
4e-
4d
=61
4cc-
4b-
4a-
=62
4b-
4a-
4g
=63
4ff-
4ee-
4dd-
=64
4ee-
4dd
4cc[
=65
2cc]
4r
=66
2.r
=67
2.g-
=68
2.ee-
=69
2.ee-[
=70
4ee-]
4aa-
4gg-
=71
4ff
4ee-
4aa-
=72
4gg-
4ff
4ee-
=73
4cc-
4b--
4b-[
=74
4b-]
4a-
4g-
=75
4f
4e-
4a-
=76
4g-
4f
4e-
=77
4c-
4B--
4B-
=78
2.B-
=79
2.E-
=80
2.E-[
=81
4E-]
4r
4r
=82
2.e-
=83
4c-
4d-
4e-
=84
2f-
8e-
8c-
=85
2e-
4d-
=86
2.g-
=87
4e-
4g-
4cc-
=88
2a-
8g-
8f-
=89
4.g-
8c-
8g-
8cc-
=90
2cc-
8b-
8a-
=91
4.b-
8a-
8g-
8f
=92
4g-
4b-
4ee-
=93
2b-
4g-
=94
4b-
4ee-
4b-
=95
2g-
4f
=96
2.ee-
=97
4cc-
4dd-
4ee-
=98
2ff-
8ee-
8cc-
=99
2ee-
8dd-
8g-
=100
2.gg-
=101
4ee-
4gg-
4ccc-
=102
2aa-
8gg-
8ff-
=103
2gg-
8ee-
8cc-
=104
4.cc-
8a-
4e-
=105
8g-
8e-
2B-
=106
4g-
4f
4e-
=107
2f
4g-
=108
4f
4e-
4f
=109
2g-
4f
=110
2.e-
=111
4c
4d-
4e-
=112
2.e-
=113
4c
4e-
4a-
=114
2.a-
=115
4b-
4a-
4g-
=116
2.a-
=117
4dd-
4b-
4g-
=118
4f
4e-
4d-
=119
4f
4e-
4d-
=120
2.d-
=121
2.d
=122
2.G-
=123
4E-
4F-
4G-
=124
2A-
8G-
8E-
=125
2G-
4B-
=126
4c-
4B-
4A-
=127
4r
4r
4dd-[
=128
8dd-]
8ff-
4.cc-
8ff-
=129
8b-
8g-
8cc-
8a-
8dd-
8f-
=130
4e-
4d-
4c-
=131
2d-
4e-
=132
4e-
2c-
=133
4d-
4c-
4d-
=134
4e-
4r
4r
=135
4d-
4c-[
4c-]
=136
2.c-
=137
2.B-
=138
2.B-[
=139
2B-]
4gg-
=140
2eee-
8fff
8eee-
=141
4r
4r
4B-
=142
2g-
8a-
8g-
=143
8f
8e-
4b-
4g-
=144
2ee-
8ff
8ee-
=145
8dd-
8cc-
4dd-
4g-
=146
4ee-
8aa-
8gg-
8ff
8ee-
=147
8cc-
8b-
8cc-
8a-
8b-
8dd-
=148
4bb-
4aa-
4ee-
=149
4gg-
4ff
4r
=150
2gg-
8aa-
8gg-
=151
8ff
8ee-
4bb-
4gg-
=152
2eee-
8fff
8eee-
=153
8ddd-
8ccc-
4ddd-
4g-
=154
2ee-
8ff
8ee-
=155
8cc-
8b-
8cc-
8a-
8b-
8dd-
=156
4bb-
4aa-
4ee-
=157
4r
4r
4d-
=158
4b-
4a-
4e-
=159
4g-
4a-
4cc
=160
4b-
4a-
4e-
=161
2g-
4r
=162
4gg-
4ff
4cc
=163
4ee-
4ff
4aa-
=164
4gg-
4ff
4cc
=165
4dd
4ee-
4ff
=166
4aa-
4gg-
4b--
=167
4cc-
4b-
4B-
=168
4r
4r
4b-
=169
2.gg-[
=170
2gg-]
8gg
8gg-
=171
8ff-
8dd
4dd-
4r
=172
4r
4r
4G-
=173
2.g-[
=174
2g-]
8g
8f-
=175
8d-
8c-
4B-
4r
=176
2.r
=177
4r
4r
4B-
=178
2g-
8a-
8g-
=179
8f
8e-
4b-
4g-
=180
2ee-
8ff
8ee-
=181
8dd-
8cc-
4dd-
4g-
=182
4ee-
8aa-
8gg-
8ff
8ee-
=183
8cc-
8b-
4cc-
8aa-
8ff
=184
8b-
8a-
4b-
8bb-
8gg-
=185
4ee-
8aa-
8ff
4dd
=186
8gg-
8ee-
8cc-
8a-
4f
=187
2ff
4B-
=188
2.bb-
=189
4r
4r
8a-
8g-
=190
8f
8e-
4r
8a-
8g-
=191
8f-
8e-
4r
8g-
8f-
=192
8e-
8d
4d
4d
=193
4d
4e-
4f
=194
4B-
4r
4r
=195
2.r
=196
4r
4r
8g-
8f-
=197
8e-
8d
4d
8d
8d-
=198
8d-
8c-
4c-
8c-
8d-
=199
8d-
8d
8d
8d-
8d-
8c-
=200
4f
4e-
4d
=201
4cc-
4b-
4a-
=202
4b-
4a-
4g
=203
4ff-
4ee-
4dd-
=204
4ee-
4dd
4cc[
=205
2cc]
4r
=206
2.r
=207
2.g-
=208
2.ee-
=209
2.ee-[
=210
4ee-]
4aa-
4gg-
=211
4ff
4ee-
4aa-
=212
4gg-
4ff
4ee-
=213
4cc-
4b--
4b-[
=214
4b-]
4a-
4g-
=215
4f
4e-
4a-
=216
4g-
4f
4e-
=217
4c-
4B--
4B-
=218
2.B-
=219
2.E-
=220
2.E-[
=221
2.E-]
=222
2.E-
=223
2.E-[
=224
4E-]
4r
4r
==
*-
